website/src/_includes/layouts/svg/sun.svg

<svg class="sun" viewBox="0 0 50 50">
	<path fill="currentColor" d="M 24.90625 3.96875 C 24.863281 3.976563 24.820313 3.988281 24.78125 4 C 24.316406 4.105469 23.988281 4.523438 24 5 L 24 11 C 23.996094 11.359375 24.183594 11.695313 24.496094 11.878906 C 24.808594 12.058594 25.191406 12.058594 25.503906 11.878906 C 25.816406 11.695313 26.003906 11.359375 26 11 L 26 5 C 26.011719 4.710938 25.894531 4.433594 25.6875 4.238281 C 25.476563 4.039063 25.191406 3.941406 24.90625 3.96875 Z M 10.65625 9.84375 C 10.28125 9.910156 9.980469 10.183594 9.875 10.546875 C 9.769531 10.914063 9.878906 11.304688 10.15625 11.5625 L 14.40625 15.8125 C 14.648438 16.109375 15.035156 16.246094 15.410156 16.160156 C 15.78125 16.074219 16.074219 15.78125 16.160156 15.410156 C 16.246094 15.035156 16.109375 14.648438 15.8125 14.40625 L 11.5625 10.15625 C 11.355469 9.933594 11.054688 9.820313 10.75 9.84375 C 10.71875 9.84375 10.6875 9.84375 10.65625 9.84375 Z M 39.03125 9.84375 C 38.804688 9.875 38.59375 9.988281 38.4375 10.15625 L 34.1875 14.40625 C 33.890625 14.648438 33.753906 15.035156 33.839844 15.410156 C 33.925781 15.78125 34.21875 16.074219 34.589844 16.160156 C 34.964844 16.246094 35.351563 16.109375 35.59375 15.8125 L 39.84375 11.5625 C 40.15625 11.265625 40.246094 10.800781 40.0625 10.410156 C 39.875 10.015625 39.460938 9.789063 39.03125 9.84375 Z M 25 15 C 19.484375 15 15 19.484375 15 25 C 15 30.515625 19.484375 35 25 35 C 30.515625 35 35 30.515625 35 25 C 35 19.484375 30.515625 15 25 15 Z M 4.71875 24 C 4.167969 24.078125 3.78125 24.589844 3.859375 25.140625 C 3.9375 25.691406 4.449219 26.078125 5 26 L 11 26 C 11.359375 26.003906 11.695313 25.816406 11.878906 25.503906 C 12.058594 25.191406 12.058594 24.808594 11.878906 24.496094 C 11.695313 24.183594 11.359375 23.996094 11 24 L 5 24 C 4.96875 24 4.9375 24 4.90625 24 C 4.875 24 4.84375 24 4.8125 24 C 4.78125 24 4.75 24 4.71875 24 Z M 38.71875 24 C 38.167969 24.078125 37.78125 24.589844 37.859375 25.140625 C 37.9375 25.691406 38.449219 26.078125 39 26 L 45 26 C 45.359375 26.003906 45.695313 25.816406 45.878906 25.503906 C 46.058594 25.191406 46.058594 24.808594 45.878906 24.496094 C 45.695313 24.183594 45.359375 23.996094 45 24 L 39 24 C 38.96875 24 38.9375 24 38.90625 24 C 38.875 24 38.84375 24 38.8125 24 C 38.78125 24 38.75 24 38.71875 24 Z M 15 33.875 C 14.773438 33.90625 14.5625 34.019531 14.40625 34.1875 L 10.15625 38.4375 C 9.859375 38.679688 9.722656 39.066406 9.808594 39.441406 C 9.894531 39.8125 10.1875 40.105469 10.558594 40.191406 C 10.933594 40.277344 11.320313 40.140625 11.5625 39.84375 L 15.8125 35.59375 C 16.109375 35.308594 16.199219 34.867188 16.039063 34.488281 C 15.882813 34.109375 15.503906 33.867188 15.09375 33.875 C 15.0625 33.875 15.03125 33.875 15 33.875 Z M 34.6875 33.875 C 34.3125 33.941406 34.011719 34.214844 33.90625 34.578125 C 33.800781 34.945313 33.910156 35.335938 34.1875 35.59375 L 38.4375 39.84375 C 38.679688 40.140625 39.066406 40.277344 39.441406 40.191406 C 39.8125 40.105469 40.105469 39.8125 40.191406 39.441406 C 40.277344 39.066406 40.140625 38.679688 39.84375 38.4375 L 35.59375 34.1875 C 35.40625 33.988281 35.148438 33.878906 34.875 33.875 C 34.84375 33.875 34.8125 33.875 34.78125 33.875 C 34.75 33.875 34.71875 33.875 34.6875 33.875 Z M 24.90625 37.96875 C 24.863281 37.976563 24.820313 37.988281 24.78125 38 C 24.316406 38.105469 23.988281 38.523438 24 39 L 24 45 C 23.996094 45.359375 24.183594 45.695313 24.496094 45.878906 C 24.808594 46.058594 25.191406 46.058594 25.503906 45.878906 C 25.816406 45.695313 26.003906 45.359375 26 45 L 26 39 C 26.011719 38.710938 25.894531 38.433594 25.6875 38.238281 C 25.476563 38.039063 25.191406 37.941406 24.90625 37.96875 Z"/>
</svg>

<svg class="sun" viewBox="0 0 50 50"><path fill="currentColor" d="M24.906 3.969c-.043.008-.086.02-.125.031A1.002 1.002 0 0024 5v6c-.004.36.184.695.496.879.313.18.695.18 1.008 0 .312-.184.5-.52.496-.879V5a1 1 0 00-1.094-1.031zm-14.25 5.875a.994.994 0 00-.781.703c-.105.367.004.758.281 1.015l4.25 4.25c.242.297.63.434 1.004.348.371-.086.664-.379.75-.75a1.004 1.004 0 00-.348-1.004l-4.25-4.25a1.004 1.004 0 00-.812-.312h-.094zm28.375 0a1.005 1.005 0 00-.593.312l-4.25 4.25a1.004 1.004 0 00-.348 1.004c.086.371.379.664.75.75.375.086.762-.05 1.004-.348l4.25-4.25a1 1 0 00-.813-1.719zM25 15c-5.516 0-10 4.484-10 10s4.484 10 10 10 10-4.484 10-10-4.484-10-10-10zM4.719 24c-.551.078-.938.59-.86 1.14.079.551.59.938 1.141.86h6c.36.004.695-.184.879-.496a1.01 1.01 0 000-1.008c-.184-.312-.52-.5-.879-.496H4.719zm34 0c-.551.078-.938.59-.86 1.14.078.551.59.938 1.141.86h6c.36.004.695-.184.879-.496a1.01 1.01 0 000-1.008c-.184-.312-.52-.5-.879-.496H38.719zM15 33.875a1.005 1.005 0 00-.594.313l-4.25 4.25a1.004 1.004 0 00-.347 1.003c.086.371.379.664.75.75.375.086.761-.05 1.004-.347l4.25-4.25a1.002 1.002 0 00-.719-1.719H15zm19.688 0a.994.994 0 00-.782.703c-.105.367.004.758.282 1.016l4.25 4.25c.242.297.628.433 1.003.347.371-.086.664-.379.75-.75a1.004 1.004 0 00-.347-1.004l-4.25-4.25a1 1 0 00-.719-.312h-.187zm-9.782 4.094c-.043.008-.086.02-.125.031A1.002 1.002 0 0024 39v6c-.004.36.184.695.496.879.313.18.695.18 1.008 0 .312-.184.5-.52.496-.879v-6a1 1 0 00-1.094-1.031z"/></svg>
